assets/icons/bell.svg

<svg xmlns="http://www.w3.org/2000/svg" xmlns:xlink="http://www.w3.org/1999/xlink" width="28" height="28" viewBox="0 0 28 28">
  <defs>
    <clipPath id="clip-path">
      <path id="Shape" d="M10.5,21a2.872,2.872,0,0,1-2.477-1.427.955.955,0,0,1,.826-1.434h3.3a.955.955,0,0,1,.827,1.434A2.875,2.875,0,0,1,10.5,21Zm9.547-4.77H.954a.955.955,0,0,1,0-1.909,1.912,1.912,0,0,0,1.909-1.91V7.638a7.638,7.638,0,0,1,15.275,0V12.41a1.912,1.912,0,0,0,1.909,1.91.915.915,0,0,1,.955.955.982.982,0,0,1-.239.656A.926.926,0,0,1,20.048,16.23ZM10.5,1.909A5.734,5.734,0,0,0,4.774,7.638V12.41a3.821,3.821,0,0,1-.511,1.91H16.74a3.822,3.822,0,0,1-.51-1.91V7.638A5.735,5.735,0,0,0,10.5,1.909Z" transform="translate(0 0)" fill="#242825"/>
    </clipPath>
    <filter id="_Icon_Color" x="-56.958" y="-39.955" width="142.912" height="142.912" filterUnits="userSpaceOnUse">
      <feOffset dy="18" input="SourceAlpha"/>
      <feGaussianBlur stdDeviation="20" result="blur"/>
      <feFlood flood-color="#6b67d2" flood-opacity="0.349"/>
      <feComposite operator="in" in2="blur"/>
      <feComposite in="SourceGraphic"/>
    </filter>
  </defs>
  <g id="Grupo_20703" data-name="Grupo 20703" transform="translate(-3545 2650)">
    <g id="Icon_bell" data-name="Icon / bell" transform="translate(3548.997 -2647)">
      <g id="Grupo_140" data-name="Grupo 140" transform="translate(0 0)">
        <path id="Shape-2" data-name="Shape" d="M5.085,1.434A2.864,2.864,0,0,1,2.608,2.861,2.864,2.864,0,0,1,.13,1.434.955.955,0,0,1,.956,0h3.3A.955.955,0,0,1,5.085,1.434Z" transform="translate(7.894 18.139)" fill="#242825"/>
        <g id="Enmascarar_grupo_140" data-name="Enmascarar grupo 140" clip-path="url(#clip-path)">
          <g transform="matrix(1, 0, 0, 1, -4, -3)" filter="url(#_Icon_Color)">
            <rect id="_Icon_Color-2" data-name="↳ Icon Color" width="22.912" height="22.912" transform="translate(3.04 2.05)" fill="#242825"/>
          </g>
        </g>
      </g>
    </g>
    <rect id="Rectángulo_3592" data-name="Rectángulo 3592" width="28" height="28" transform="translate(3545 -2650)" fill="none"/>
  </g>
</svg>

<?xml version="1.0" encoding="UTF-8" standalone="no"?>
<svg
   width="120"
   height="120"
   viewBox="0 0 120 120"
   version="1.1"
   id="svg33"
   sodipodi:docname="bell.svg"
   inkscape:version="1.1.2 (b8e25be8, 2022-02-05)"
   xmlns:inkscape="http://www.inkscape.org/namespaces/inkscape"
   xmlns:sodipodi="http://sodipodi.sourceforge.net/DTD/sodipodi-0.dtd"
   xmlns="http://www.w3.org/2000/svg"
   xmlns:svg="http://www.w3.org/2000/svg">
  <sodipodi:namedview
     id="namedview35"
     pagecolor="#ffffff"
     bordercolor="#666666"
     borderopacity="1.0"
     inkscape:pageshadow="2"
     inkscape:pageopacity="0.0"
     inkscape:pagecheckerboard="0"
     showgrid="false"
     width="120px"
     inkscape:zoom="5.5803571"
     inkscape:cx="45.6064"
     inkscape:cy="62.9888"
     inkscape:window-width="1399"
     inkscape:window-height="847"
     inkscape:window-x="0"
     inkscape:window-y="25"
     inkscape:window-maximized="0"
     inkscape:current-layer="svg33" />
  <defs
     id="defs22">
    <clipPath
       id="clip-path">
      <path
         id="Shape"
         d="M 10.5,21 A 2.872,2.872 0 0 1 8.023,19.573 0.955,0.955 0 0 1 8.849,18.139 h 3.3 A 0.955,0.955 0 0 1 12.976,19.573 2.875,2.875 0 0 1 10.5,21 Z m 9.547,-4.77 H 0.954 a 0.955,0.955 0 0 1 0,-1.909 1.912,1.912 0 0 0 1.909,-1.91 V 7.638 a 7.638,7.638 0 0 1 15.275,0 v 4.772 a 1.912,1.912 0 0 0 1.909,1.91 0.915,0.915 0 0 1 0.955,0.955 0.982,0.982 0 0 1 -0.239,0.656 0.926,0.926 0 0 1 -0.715,0.299 z M 10.5,1.909 A 5.734,5.734 0 0 0 4.774,7.638 V 12.41 A 3.821,3.821 0 0 1 4.263,14.32 H 16.74 A 3.822,3.822 0 0 1 16.23,12.41 V 7.638 A 5.735,5.735 0 0 0 10.5,1.909 Z"
         fill="#242825" />
    </clipPath>
    <filter
       id="_Icon_Color"
       x="-56.958"
       y="-39.955002"
       width="142.912"
       height="142.912"
       filterUnits="userSpaceOnUse">
      <feOffset
         dy="18"
         input="SourceAlpha"
         id="feOffset11" />
      <feGaussianBlur
         stdDeviation="20"
         result="blur"
         id="feGaussianBlur13" />
      <feFlood
         flood-color="#6b67d2"
         flood-opacity="0.349"
         id="feFlood15" />
      <feComposite
         operator="in"
         in2="blur"
         id="feComposite17"
         result="result1" />
      <feComposite
         in="SourceGraphic"
         in2="result1"
         id="feComposite19" />
    </filter>
    <clipPath
       id="clip-path-7">
      <path
         id="Shape-7"
         d="M 10.5,21 A 2.872,2.872 0 0 1 8.023,19.573 0.955,0.955 0 0 1 8.849,18.139 h 3.3 A 0.955,0.955 0 0 1 12.976,19.573 2.875,2.875 0 0 1 10.5,21 Z m 9.547,-4.77 H 0.954 a 0.955,0.955 0 0 1 0,-1.909 1.912,1.912 0 0 0 1.909,-1.91 V 7.638 a 7.638,7.638 0 0 1 15.275,0 v 4.772 a 1.912,1.912 0 0 0 1.909,1.91 0.915,0.915 0 0 1 0.955,0.955 0.982,0.982 0 0 1 -0.239,0.656 0.926,0.926 0 0 1 -0.715,0.299 z M 10.5,1.909 A 5.734,5.734 0 0 0 4.774,7.638 V 12.41 A 3.821,3.821 0 0 1 4.263,14.32 H 16.74 A 3.822,3.822 0 0 1 16.23,12.41 V 7.638 A 5.735,5.735 0 0 0 10.5,1.909 Z"
         fill="#242825" />
    </clipPath>
    <filter
       id="_Icon_Color-9"
       x="-56.958"
       y="-39.955002"
       width="142.912"
       height="142.912"
       filterUnits="userSpaceOnUse">
      <feOffset
         dy="18"
         input="SourceAlpha"
         id="feOffset11-7" />
      <feGaussianBlur
         stdDeviation="20"
         result="blur"
         id="feGaussianBlur13-5" />
      <feFlood
         flood-color="#6b67d2"
         flood-opacity="0.349"
         id="feFlood15-3" />
      <feComposite
         operator="in"
         in2="blur"
         id="feComposite17-9"
         result="result1" />
      <feComposite
         in="SourceGraphic"
         in2="result1"
         id="feComposite19-9" />
    </filter>
    <mask
       maskUnits="userSpaceOnUse"
       id="mask548">
      <rect
         style="fill:#cccccc;stroke-width:0.210742"
         id="rect550"
         width="21.182337"
         height="20.966534"
         x="3548.9177"
         y="-2646.9695" />
    </mask>
  </defs>
  <g
     id="Grupo_20703"
     data-name="Grupo 20703"
     transform="matrix(4.7209143,0,0,4.7695057,-16744.137,12634.736)"
     mask="url(#mask548)">
    <g
       id="Icon_bell"
       data-name="Icon / bell"
       transform="translate(3548.997,-2647)">
      <g
         id="Grupo_140"
         data-name="Grupo 140">
        <path
           id="Shape-2"
           data-name="Shape"
           d="M 5.085,1.434 A 2.864,2.864 0 0 1 2.608,2.861 2.864,2.864 0 0 1 0.13,1.434 0.955,0.955 0 0 1 0.956,0 h 3.3 a 0.955,0.955 0 0 1 0.829,1.434 z"
           transform="translate(7.894,18.139)"
           fill="#242825" />
        <g
           id="Enmascarar_grupo_140"
           data-name="Enmascarar grupo 140"
           clip-path="url(#clip-path-7)">
          <g
             transform="translate(-4,-3)"
             filter="url(#_Icon_Color)"
             id="g26"
             style="filter:url(#_Icon_Color-9)">
            <rect
               id="_Icon_Color-2"
               data-name="↳ Icon Color"
               width="22.912001"
               height="22.912001"
               transform="translate(3.04,2.05)"
               fill="#242825"
               x="0"
               y="0" />
          </g>
        </g>
      </g>
    </g>
    <rect
       id="Rectángulo_3592"
       data-name="Rectángulo 3592"
       width="28"
       height="28"
       transform="translate(3545,-2650)"
       fill="none"
       x="0"
       y="0" />
  </g>
</svg>
